64x64/apps/appimagekit-cacher.svg

<svg xmlns="http://www.w3.org/2000/svg" width="64" height="64" version="1.1">
 <circle style="opacity:0.2" cx="32" cy="33" r="28"/>
 <circle style="fill:#2d96dd" cx="32" cy="32" r="28"/>
 <path style="opacity:0.2" d="m 33.400391,19 -8.333985,25 h 4.429688 L 37.830078,19 Z M 24,25.796875 23.142578,26.183594 11,31.453125 l 0.0059,3.832031 12.142579,5.234375 L 24,40.900391 v -4.59961 L 17.001953,33.361328 24,30.402344 Z m 15,0 v 4.605469 L 45.998047,33.361328 39,36.300781 v 4.59961 L 39.851562,40.519531 51.994141,35.285156 52,31.453125 39.857422,26.183594 Z"/>
 <path style="fill:#f4f4f7" d="M 33.400391 18 L 25.066406 43 L 29.496094 43 L 37.830078 18 L 33.400391 18 z M 24 24.796875 L 23.142578 25.183594 L 11 30.453125 L 11.005859 34.285156 L 23.148438 39.519531 L 24 39.900391 L 24 35.300781 L 17.001953 32.361328 L 24 29.402344 L 24 24.796875 z M 39 24.796875 L 39 29.402344 L 45.998047 32.361328 L 39 35.300781 L 39 39.900391 L 39.851562 39.519531 L 51.994141 34.285156 L 52 30.453125 L 39.857422 25.183594 L 39 24.796875 z"/>
 <path style="fill:#f4f4f7;opacity:0.2" d="M 32 4 A 28 28 0 0 0 4 32 A 28 28 0 0 0 4.0214844 32.585938 A 28 28 0 0 1 32 5 A 28 28 0 0 1 59.978516 32.414062 A 28 28 0 0 0 60 32 A 28 28 0 0 0 32 4 z"/>
</svg>

<svg xmlns="http://www.w3.org/2000/svg" width="64" height="64"><circle style="opacity:.2" cx="32" cy="33" r="28"/><circle style="fill:#2d96dd" cx="32" cy="32" r="28"/><path style="opacity:.2" d="m33.4 19-8.334 25h4.43l8.334-25zM24 25.797l-.857.387L11 31.454l.006 3.831 12.142 5.235.852.38v-4.6l-6.998-2.939L24 30.402zm15 0v4.605l6.998 2.96L39 36.3v4.6l.852-.381 12.142-5.235.006-3.832-12.143-5.27z"/><path style="fill:#f4f4f7" d="m33.4 18-8.334 25h4.43l8.334-25H33.4zM24 24.797l-.857.387L11 30.454l.006 3.831 12.142 5.235.852.38v-4.6l-6.998-2.939L24 29.402v-4.605zm15 0v4.605l6.998 2.96L39 35.3v4.6l.852-.381 12.142-5.235.006-3.832-12.143-5.27-.857-.386z"/><path style="fill:#f4f4f7;opacity:.2" d="M32 4A28 28 0 0 0 4 32a28 28 0 0 0 .021.586A28 28 0 0 1 32 5a28 28 0 0 1 27.979 27.414A28 28 0 0 0 60 32 28 28 0 0 0 32 4z"/></svg>
